usr/share/icons/biglinux-icons-material/24/actions/restoration.svg

<!DOCTYPE svg>
<svg viewBox="0 0 24 24" version="1.1" xmlns="http://www.w3.org/2000/svg">
    <defs>
        <style type="text/css" id="current-color-scheme">
            .ColorScheme-Text {
                color:#dedede;
            }
        </style>
    </defs><g transform="translate(1,1)">
    <path class="ColorScheme-Text" style="fill:currentColor; fill-opacity:1; stroke:none" d="M 4 19 L 4 12 L 5 12 L 17 12 L 18 12 L 18 19 L 17 19 L 5 19 L 4 19 Z M 5 18 L 17 18 L 17 13 L 5 13 L 5 18 Z M 4 11 L 4 3 L 5 3 L 13 3 L 14 3 L 14 3.0098 L 14.008 3 L 18.0002 6.99219 L 18.0002 6.99999 L 18.0002 8.40624 L 18.0002 11 L 17.0002 11 L 5.00019 11 L 4 11 Z M 5 10 L 17 10 L 17 8 L 13 8 L 13 7 L 13 4 L 5 4 L 5 10 Z"/>
</g></svg>

<svg xmlns="http://www.w3.org/2000/svg" viewBox="0 0 24 24"><path d="M4 19v-7h14v7H4Zm1-1h12v-5H5v5Zm-1-7V3h10v.01l.008-.01L18 6.992V11H4Zm1-1h12V8h-4V4H5v6Z" style="fill:currentColor;fill-opacity:1;stroke:none;color:#dedede" transform="translate(1 1)"/></svg>
